dist/assets/images/sprite-icons/document.svg

<svg width="55" height="56" viewBox="0 0 55 56" fill="none" xmlns="http://www.w3.org/2000/svg">
<path d="M23.9932 29.3724V28.0867C23.9932 27.7251 24.2745 27.4439 24.6361 27.4439H38.7789C39.1405 27.4439 39.4218 27.7251 39.4218 28.0867V29.3724C39.4218 29.734 39.1405 30.0153 38.7789 30.0153H24.6361C24.2745 30.0153 23.9932 29.734 23.9932 29.3724Z" fill="white"/>
<path d="M24.6361 32.5867H38.7789C39.1405 32.5867 39.4218 32.868 39.4218 33.2296V34.5153C39.4218 34.8769 39.1405 35.1581 38.7789 35.1581H24.6361C24.2745 35.1581 23.9932 34.8769 23.9932 34.5153V33.2296C23.9932 32.868 24.2745 32.5867 24.6361 32.5867Z" fill="white"/>
<path d="M24.6361 37.7296H38.7789C39.1405 37.7296 39.4218 38.0108 39.4218 38.3724V39.6581C39.4218 40.0198 39.1405 40.301 38.7789 40.301H24.6361C24.2745 40.301 23.9932 40.0198 23.9932 39.6581V38.3724C23.9932 38.0108 24.2745 37.7296 24.6361 37.7296Z" fill="white"/>
<path fill-rule="evenodd" clip-rule="evenodd" d="M16.2789 21.3148C12.1837 21.3148 8.86392 17.995 8.86392 13.8998C8.86392 9.80461 12.1837 6.4848 16.2789 6.4848C19.7229 6.4848 22.6185 8.83277 23.4523 12.0153H36.2075C37.2722 12.0153 38.7588 12.6381 39.5021 13.3814L45.77 19.6492C46.5133 20.3925 47.1361 21.8791 47.1361 22.9439V46.0867C47.1361 47.1515 46.2722 48.0153 45.2075 48.0153H18.2075C17.1428 48.0153 16.2789 47.1515 16.2789 46.0867L16.2789 21.3148ZM18.8504 20.8568C21.4729 19.8871 23.397 17.477 23.6625 14.5867H34.2789V22.9439C34.2789 24.0086 35.1428 24.8724 36.2075 24.8724H44.5646V45.4439H18.8504V20.8568ZM37.674 15.1894C37.5334 15.0488 37.1919 14.868 36.8504 14.7474V22.301H44.4039C44.2834 21.9595 44.1026 21.618 43.962 21.4773L37.674 15.1894ZM17.2789 14.8998H21.2789V12.8998H17.2789V8.89984H15.2789V12.8998H11.2789V14.8998H15.2789V18.8998H17.2789V14.8998Z" fill="white"/>
</svg>

<svg width="55" height="56" fill="none" xmlns="http://www.w3.org/2000/svg"><path d="M23.993 29.372v-1.285c0-.362.282-.643.643-.643H38.78c.361 0 .643.281.643.643v1.285a.635.635 0 01-.643.643H24.636a.635.635 0 01-.643-.643zm.643 3.215H38.78c.361 0 .643.281.643.643v1.285a.635.635 0 01-.643.643H24.636a.635.635 0 01-.643-.643V33.23c0-.362.282-.643.643-.643zm0 5.143H38.78c.361 0 .643.28.643.642v1.286a.635.635 0 01-.643.643H24.636a.635.635 0 01-.643-.643v-1.286c0-.361.282-.642.643-.642z" fill="#fff"/><path fill-rule="evenodd" clip-rule="evenodd" d="M16.279 21.315a7.415 7.415 0 117.173-9.3h12.756c1.064 0 2.55.623 3.294 1.366l6.268 6.268c.743.743 1.366 2.23 1.366 3.295v23.143a1.93 1.93 0 01-1.928 1.928h-27a1.93 1.93 0 01-1.93-1.928V21.315zm2.571-.458a7.421 7.421 0 004.813-6.27h10.616v8.357a1.93 1.93 0 001.928 1.928h8.358v20.572H18.85V20.857zm18.824-5.668c-.14-.14-.482-.321-.824-.442v7.554h7.554c-.12-.341-.301-.683-.442-.824l-6.288-6.288zm-20.395-.29h4v-2h-4v-4h-2v4h-4v2h4v4h2v-4z" fill="#fff"/></svg>
